X: 164
T: REEL: Virginia
C: C: Trad.; S: Planxty
C: Set Leaders: Sophie, Anton, Tania
Z: Anton Zille ed.; James Dumbelton at The Session
N: https://thesession.org/members/26966/sets/99412
R: Reel
M: 4/4
L: 1/8
Q: 1/2=100
K: Dmaj
DBBA B3B|BAdB AFEF|DF F/F/F A3B|AFBF AFEF|
DBBA B3B|BAdB ABde|~f3e defe|dBAF BE E2:||
|:defe d3A|BAFA dAFA|defe defg|afbf afeg|
fedf efdB|AF F/F/F ABde|~f3e defe|dBAF BE E2:||

